X:18
T:A kiss for a ha'peny
M:C|
L:1/8
K:EMin
GBdB A/A/A e2|GBdB gedB|cedB A/A/A e2|d/c/B/A/ GB d2 e2:|
dBgB A/A/A e2|dBgB aBgB|dBgB A/A/A e2|d/c/B/A/ GB d2 e2:|

% @@@@@@@@@@@@@@@@@@@@@@@@@@@@@@@@@@

%% 19. ===============================================================================

%   The
% &Gimlet.&
%
% *SETT and cast off one Pair; the Man setts, and casts off; the Woman up.  *The Man
% runs the figure 8 with the 2d Couple, and the Woman with the first Couple at the
% same time; change the Pairs, and figure as before.  *SETT to your partner and turn
% 2d Woman; the Woman the same with the 1st Man at the same time: that again.  *Lead
% out at both sides.

% @@@@@@@@@@@@@@@@@@@@@@@@@@@@@@@@@@

